X: 843
T: Rose Tree, The
B: jims roots
M:4/4
L:1/8
Q: 1/4=100
K:D
V:1 
%S:Kevin Briggs, via EF
fe | "D"d2B2 A2F2 | ABAF A2FA | d2cd "A"e2de | "D"f2e2 "A"egfe |
     "D"d2 (3BdB A2F2 |  ABAF A2FA | d2cd "A"e2de | "D"f2d2 d2 :|
de | "D"f2e2 f2g2 | a2ba g2f2 | "Em"e2ba b2a2 | "A"b2e2 e2fe |
"D"d2 (3BdB A2F2 | ABAF A2FA | d2cd "A"e2de | "D"fdd cd :|
% abcbook-tune_id 6298c287bd9947b74ce57d71


% abcbook-boost 0
% abcbook-tablature 
% abcbook-transpose 
% abcbook-lastupdated 1654178439833
% abcbook-soundfonts 
% abcbook-repeats 1
% Nottingham Music Database

